images/continents/europe/leagues/bundesliga/clubs/borussia-dortmund.svg

<svg xmlns="http://www.w3.org/2000/svg" xmlns:xlink="http://www.w3.org/1999/xlink" width="1080" zoomAndPan="magnify" viewBox="0 0 810 809.999993" height="1080" preserveAspectRatio="xMidYMid meet" version="1.0"><path fill="#f9d438" d="M 1.003906 405.007812 C 1.003906 181.882812 181.878906 1.003906 405.003906 1.003906 C 628.136719 1.003906 809.015625 181.882812 809.015625 405.007812 C 809.015625 628.140625 628.136719 809.015625 405.003906 809.015625 C 181.878906 809.015625 1.003906 628.140625 1.003906 405.007812 " fill-opacity="1" fill-rule="evenodd"/><path fill="#000105" d="M 20.417969 405.007812 C 20.417969 192.605469 192.601562 20.417969 405.003906 20.417969 C 617.410156 20.417969 789.597656 192.605469 789.597656 405.007812 C 789.597656 617.417969 617.410156 789.601562 405.003906 789.601562 C 192.601562 789.601562 20.417969 617.417969 20.417969 405.007812 " fill-opacity="1" fill-rule="evenodd"/><path fill="#f9d438" d="M 41.773438 405.007812 C 41.773438 204.398438 204.398438 41.777344 405.003906 41.777344 C 605.621094 41.777344 768.242188 204.398438 768.242188 405.007812 C 768.242188 605.621094 605.621094 768.242188 405.003906 768.242188 C 204.398438 768.242188 41.773438 605.621094 41.773438 405.007812 " fill-opacity="1" fill-rule="evenodd"/><path fill="#000105" d="M 464.441406 714.507812 C 437.621094 714.507812 418.09375 694.207031 418.09375 671.023438 C 418.09375 667.636719 417.847656 666.132812 418.007812 663.703125 L 443.3125 663.703125 C 450.644531 663.703125 449.464844 673.632812 449.464844 673.632812 C 449.464844 681.277344 457.730469 684.742188 463.960938 684.902344 C 471.535156 685.117188 477.710938 678.144531 477.710938 670.5 L 477.597656 655.679688 C 472.757812 658.308594 463.160156 658.257812 463.160156 658.257812 C 440.234375 657.632812 417.84375 637.851562 417.84375 613.398438 L 417.84375 602.503906 C 417.84375 578.042969 438.703125 558.796875 463.160156 558.796875 L 464.164062 558.796875 C 488.621094 558.796875 507.613281 578.605469 507.613281 603.066406 L 507.613281 669.871094 C 507.613281 695.039062 489.789062 714.246094 464.441406 714.507812 " fill-opacity="1" fill-rule="evenodd"/><path fill="#f9d438" d="M 463.4375 590.394531 L 463.871094 590.394531 C 471.515625 590.394531 477.710938 596.585938 477.710938 604.230469 L 477.710938 613 C 477.710938 620.644531 471.515625 626.839844 463.871094 626.839844 L 463.4375 626.839844 C 455.792969 626.839844 449.601562 620.644531 449.601562 613 L 449.601562 604.230469 C 449.601562 596.585938 455.792969 590.394531 463.4375 590.394531 " fill-opacity="1" fill-rule="evenodd"/><path fill="#000105" d="M 131.632812 250.960938 L 131.632812 552.554688 L 226.644531 552.652344 C 303.292969 552.652344 342.214844 459.644531 288.914062 402.316406 C 288.914062 402.316406 288.753906 402.152344 288.753906 401.867188 C 288.753906 401.585938 289.136719 401.292969 289.136719 401.292969 C 333.425781 351.261719 314.875 263.382812 232.5 250.960938 Z M 187.292969 374.695312 L 187.292969 307.070312 L 233.964844 307.070312 C 264.234375 307.070312 270.449219 365.402344 235.785156 374.695312 Z M 187.292969 499.511719 L 187.292969 428.65625 L 228.597656 428.65625 C 262.769531 428.65625 274.972656 490.726562 230.550781 499.511719 Z M 187.292969 499.511719 " fill-opacity="1" fill-rule="evenodd"/><path fill="#000105" d="M 523.828125 250.960938 L 523.828125 552.554688 L 618.84375 552.652344 C 695.492188 552.652344 734.414062 459.644531 681.109375 402.316406 C 681.109375 402.316406 680.953125 402.152344 680.953125 401.867188 C 680.953125 401.585938 681.332031 401.292969 681.332031 401.292969 C 725.621094 351.261719 707.074219 263.382812 624.699219 250.960938 Z M 579.769531 374.695312 L 579.769531 307.070312 L 626.164062 307.070312 C 656.433594 307.070312 662.644531 365.402344 627.984375 374.695312 Z M 579.769531 499.511719 L 579.769531 428.65625 L 620.792969 428.65625 C 654.96875 428.65625 667.175781 490.726562 622.75 499.511719 Z M 579.769531 499.511719 " fill-opacity="1" fill-rule="evenodd"/><path fill="#000105" d="M 345.476562 559 L 346.484375 559 C 370.9375 559 390.761719 578.828125 390.761719 603.289062 L 390.761719 670.164062 C 390.761719 694.621094 370.9375 714.453125 346.484375 714.453125 L 345.476562 714.453125 C 321.019531 714.453125 301.191406 694.621094 301.191406 670.164062 L 301.191406 603.289062 C 301.191406 578.828125 321.019531 559 345.476562 559 " fill-opacity="1" fill-rule="evenodd"/><path fill="#f9d438" d="M 345.753906 590.765625 L 346.203125 590.765625 C 353.851562 590.765625 360.042969 596.964844 360.042969 604.609375 L 360.042969 671 C 360.042969 678.644531 353.851562 684.839844 346.203125 684.839844 L 345.753906 684.839844 C 338.113281 684.839844 331.917969 678.644531 331.917969 671 L 331.917969 604.609375 C 331.917969 596.964844 338.113281 590.765625 345.753906 590.765625 " fill-opacity="1" fill-rule="evenodd"/><path fill="#000105" d="M 284.605469 100.320312 L 383.433594 406.070312 L 426.183594 406.070312 L 523.828125 100.320312 L 464.023438 100.320312 L 404.703125 304.394531 L 345.785156 100.320312 L 284.605469 100.320312 " fill-opacity="1" fill-rule="evenodd"/></svg>

<svg xmlns="http://www.w3.org/2000/svg" width="1080" viewBox="0 0 810 810" height="1080" version="1.0"><path fill="#f9d438" d="M1.004 405.008c0-223.125 180.875-404.004 404-404.004 223.133 0 404.012 180.879 404.012 404.004 0 223.133-180.88 404.008-404.012 404.008-223.125 0-404-180.875-404-404.008" fill-rule="evenodd"/><path fill="#000105" d="M20.418 405.008c0-212.403 172.184-384.59 384.586-384.59 212.406 0 384.594 172.187 384.594 384.59 0 212.41-172.188 384.594-384.594 384.594-212.402 0-384.586-172.184-384.586-384.594" fill-rule="evenodd"/><path fill="#f9d438" d="M41.773 405.008c0-200.61 162.625-363.23 363.23-363.23 200.618 0 363.24 162.62 363.24 363.23 0 200.613-162.622 363.234-363.24 363.234-200.605 0-363.23-162.62-363.23-363.234" fill-rule="evenodd"/><path fill="#000105" d="M464.441 714.508c-26.82 0-46.347-20.301-46.347-43.485 0-3.386-.246-4.89-.086-7.32h25.305c7.332 0 6.152 9.93 6.152 9.93 0 7.644 8.265 11.11 14.496 11.27 7.574.214 13.75-6.758 13.75-14.403l-.113-14.82c-4.84 2.629-14.438 2.578-14.438 2.578-22.926-.625-45.316-20.406-45.316-44.86v-10.894c0-24.461 20.86-43.707 45.316-43.707h1.004c24.457 0 43.45 19.808 43.45 44.27v66.804c0 25.168-17.825 44.375-43.173 44.637" fill-rule="evenodd"/><path fill="#f9d438" d="M463.438 590.395h.433c7.645 0 13.84 6.19 13.84 13.835V613c0 7.645-6.195 13.84-13.84 13.84h-.433c-7.645 0-13.836-6.195-13.836-13.84v-8.77c0-7.644 6.191-13.835 13.836-13.835" fill-rule="evenodd"/><path fill="#000105" d="M131.633 250.96v301.595l95.012.097c76.648 0 115.57-93.007 62.27-150.336 0 0-.161-.164-.161-.449 0-.281.383-.574.383-.574 44.289-50.031 25.738-137.91-56.637-150.332Zm55.66 123.735V307.07h46.672c30.27 0 36.484 58.332 1.82 67.625Zm0 124.817v-70.856h41.305c34.172 0 46.375 62.07 1.953 70.856ZM523.828 250.96v301.595l95.016.097c76.648 0 115.57-93.007 62.265-150.336 0 0-.156-.164-.156-.449 0-.281.379-.574.379-.574 44.29-50.031 25.742-137.91-56.633-150.332Zm55.942 123.735V307.07h46.394c30.27 0 36.48 58.332 1.82 67.625Zm0 124.817v-70.856h41.023c34.176 0 46.383 62.07 1.957 70.856ZM345.477 559h1.007c24.454 0 44.278 19.828 44.278 44.29v66.874c0 24.457-19.825 44.29-44.278 44.29h-1.007c-24.457 0-44.286-19.833-44.286-44.29V603.29c0-24.46 19.829-44.289 44.286-44.289" fill-rule="evenodd"/><path fill="#f9d438" d="M345.754 590.766h.45c7.648 0 13.839 6.199 13.839 13.843V671c0 7.645-6.191 13.84-13.84 13.84h-.45c-7.64 0-13.835-6.195-13.835-13.84v-66.39c0-7.645 6.195-13.844 13.836-13.844" fill-rule="evenodd"/><path fill="#000105" d="m284.605 100.32 98.829 305.75h42.75l97.644-305.75h-59.805l-59.32 204.075-58.918-204.075h-61.18" fill-rule="evenodd"/></svg>
